X:1
T:Title
L:1/8
Q:1/4=100
M:4/4
K:Bb
V:1 treble nm="Church Organ, Staff"
V:1
 FFGA Bc d2 | dcdc B4 | FFGF FG A2 | cBAG F2 F2 | e2 dc B3 F | G2 c2 A3 F | GABe d2 c2 | B6 dc | %8
w: Generated~by~NoteWorthy~Composer * * * * * *||||||||
 B2 AG F2 dc | B2 AG F2 FF | G B2 B A2 B2 | c6 F2 | e2 dc d2 F2 | c2 BA B2 FF | G B2 B A2 Bc | %15
w: |||||||
 B6 BB | e4 d2 BB | e4 d2 f2 | Bcde d2 c2 | B8 |] %20
w: |||||

